X:1
T:Title
%%score { ( 1 4 5 ) | ( 2 3 ) }
L:1/8
Q:1/4=108
M:4/4
K:Bb
V:1 treble nm="Grand Piano"
V:4 treble 
V:5 treble 
V:2 bass 
V:3 bass 
V:1
 [DF]2 [DB]2 [DB]2 [FB]2 | [GB]AGA [B,GB]2 [B,EG]2 | [B,F]2 [DFB]2 [CFe]2 [Fd]2 | %3
w: Asa~Hull * * *|||
 [=Ec]2 [EB]2 [FA]4 | [DF]2 [DB]2 [DB]2 [FB]2 | [GB]AGA [B,GB]2 [B,EG]2 | [B,F]2 [DFB]2 d3 e | %7
w: ||||
[M:5/4] c3 [DB] [DB]6 |[M:4/4] e2 e2 d2 d2 | c2 c2 B2 B2 | [^FA]2 [FA]2 G2 G2 | F2 [Fd]2 c4 | %12
w: |||||
 F2 B2 B2 [FB]2 | [GB]AGA [B,GB]2 [B,EG]2 | [B,F]2 [DFB]2 d3 e | c3 [DB] [DB]4 | [DF]4 [DB]4 | %17
w: |||||
 z2 z c [EGc]4 | [FB]4 z4 | [DB]4 [Fd]4 | [DF]4 [DB]4 | z2 z c [EGc]4 | [FB]4 z4 | [DB]8[K:bass] |] %24
w: |||||||
V:2
 [B,,B,]2 [B,,B,]2 [B,,B,]2 [D,B,]2 | z[K:treble] FEF[K:bass] E,2 E,2 | D,2 B,,2 A,,2 [B,,B,]2 | %3
 [C,G,]2 [C,C]2 [F,C]4 | [B,,B,]2 [B,,B,]2 [B,,B,]2 [D,B,]2 | z[K:treble] FEF[K:bass] E,2 E,2 | %6
 D,2 B,,2 [F,B,F]3 [F,CF] |[M:5/4] [F,A,E]3 [B,,B,] [B,,B,]6 | %8
[M:4/4][K:treble] [B,G]2 [B,G]2 [B,F]2 [B,F]2 | [F,A,E]2 [F,A,E]2[K:treble] [G,B,D]2 [G,DG]2 | %10
 [D,D]2 [D,C]2 [E,B,]2 [E,B,E]2 | [D,B,]2 [B,,B,]2 [F,A,F]4 | [B,D]2 [B,D]2 [B,D]2 [D,B,]2 | %13
 z[K:treble] FEF[K:bass] E,2 E,2 | D,2 B,,2 [F,B,F]3 [F,CF] | [F,A,E]3 [B,,B,] [B,,B,]4 | %16
 [B,,B,]2 z D B,,2 B,,2 | [E,B,E]2 z G E,4 | F,2 z F EEEE | [B,,B,]2 [B,,B,]2 [B,,B,]4 | %20
 [B,,B,]2 z D B,,2 B,,2 | [E,B,E]2 z G E,4 | F,2 z F EEEE | B,,2 B,,2 B,,4 |] %24
V:3
 x8 | [E,B,]2[K:treble] [E,B,]2[K:bass] z4 | x8 | x8 | x8 | [E,B,]2[K:treble] [E,B,]2[K:bass] z4 | %6
 x8 |[M:5/4] x10 |[M:4/4][K:treble] x8 | x4[K:treble] x4 | x8 | x8 | x8 | %13
 [E,B,]2[K:treble] [E,B,]2[K:bass] z4 | x8 | x8 | z2 B,,2 z4 | z2 E,2 z4 | z2 F,2 [F,A,]2 [F,C]2 | %19
 x8 | z2 B,,2 z4 | z2 E,2 z4 | z2 F,2 [F,A,]2 [F,C]2 | x8 |] %24
V:4
 x8 | x8 | x8 | x8 | x8 | x8 | x8 |[M:5/4] x10 |[M:4/4] x8 | x8 | x8 | x8 | x8 | x8 | x8 | x8 | %16
 z2 z B B,2 B,2 | G4 z4 | D2 z A GFGA | x8 | z2 z B B,2 B,2 | G4 z4 | D2 z A GFGA | %23
 B,2[K:bass] F,2 F,4 |] %24
V:5
 x8 | x8 | x8 | x8 | x8 | x8 | x8 |[M:5/4] x10 |[M:4/4] x8 | x8 | x8 | x8 | x8 | x8 | x8 | x8 | %16
 z2 B,2 z4 | z2 E2 z4 | z2 B,2 z4 | x8 | z2 B,2 z4 | z2 E2 z4 | z2 B,2 z4 | x2[K:bass] x6 |] %24

